X: 20115
T: Jimmy's Close-In
R: polka
M: 2/4
K: Cmajor
|:G2- GA|G2 cd|e2 ef|e2 dc|
AB cA|GE CE|D2- DE|D2 DE|
G2 GA|G2 cd|e2 ef|e2 dc|
AB cA|GE DE|1 C2- CD|C2 CE:|2 C2- C2|C2 ef||
|:gf ef|g2- g2|c>B cd|e2- e2|
F2 AB/A/|Gc GE|D2- DE|D2 DE|
G2 GA|G2 cd|e2 ef|e2 dc|
AB cA|GE DE|C2- C2|1 C2 ef:|2 C2 CE||

